!!!OTL: Alter Ruf zu Christo
!!!ARE: Europa, Mitteleuropa, Deutschland
!!!SCT: A0540
!!!YEM: Copyright 1995, estate of Helmut Schaffrath.
**kern
*ICvox
*Ivox
*M3/2
*k[b-e-]
*B-:
{2bb-
=1
2bb-
2bb-
2bb-
=2
2aa
2gg
2bb-
=3
2aa
2ff
2gg
=4
1dd}
{2bb-
=5
2bb-
2bb-
2bb-
=6
2aa
2gg
2bb-
=7
2aa
2ff
2gg
=8
1dd}
{2gg
=9
2ff
2gg
2ff
=10
2dd
2b-
2dd
=11
2ff
2gg
2ff
=12
1dd}
==
!!!AGN: Romanze, Ballade, Lied, religioeses Lied
!! Mainzer Cantual 1605.
!!!ONB: ESAC (Essen Associative Code) Database: ALTDEU
!!!AMT: simple triple
!!!AIN: vox
!!!EED: Helmut Schaffrath
!!!EEV: 1.0
*-
